icons/editor/text-size.svg

<svg width="32" height="32" viewBox="0 0 32 32" xmlns="http://www.w3.org/2000/svg">
    <path fill-rule="evenodd" d="M21 8h7V6H12v2h7v18h2V8zm-11 8h4v-2H4v2h4v10h2V16z"/>
</svg>

<svg width="32" height="32" viewBox="0 0 32 32" fill="none" xmlns="http://www.w3.org/2000/svg">
<path fill-rule="evenodd" clip-rule="evenodd" d="M21 8H28V6H12V8H19V26H21V8ZM10 16H14V14H4V16H8V26H10V16Z" fill="black"/>
</svg>
